X:944
T:Mo Ghile Mear
R:Air
P:Play AABA
B:Whistle and Sing
B:Traditional Irish Bagpipe
S:Xerox of uncertain origin
Z:Transcription, chords:Mike Long
M:4/4
L:1/4
K:D
"D"A>AAB|def2|"G"gf/e/"D"f>e|"A"dBA2|"D"d>c"A"BA|\
"D"def>g|"D"a>b "A"a<f|"D"e>d "Fin"d2:|
"D"faa>f|edd>e|\
faa>f|"A"ede2|"D"faa>f|"A"edde/f/|"G"gf/e/f>e|"A"dBA2|]
